src/assets/logos/creatorscup.svg

<svg width="1357" height="252" viewBox="0 0 1357 252" fill="none" xmlns="http://www.w3.org/2000/svg">
<mask id="path-1-outside-1_878_650" maskUnits="userSpaceOnUse" x="444.376" y="36.4321" width="913" height="173" fill="black">
<rect fill="white" x="444.376" y="36.4321" width="913" height="173"/>
<path d="M579.7 117.674H484.077C463.696 117.061 447.376 100.587 447.376 80.0529C447.376 59.5952 463.696 42.8152 484.077 42.4321H579.7V58.5991H491.663C486.376 58.5991 484.537 58.6757 484.46 58.6757C472.737 58.9056 463.62 68.4832 463.62 80.0529C463.62 91.6226 472.891 101.2 484.384 101.43H579.7V117.674Z"/>
<path d="M602.325 58.6757L587.537 42.4321H674.348C686.301 42.4321 696.108 52.2396 696.108 64.1924C696.108 76.1452 686.301 85.9527 674.348 85.9527H649.293L663.468 101.43H797.401V117.674H656.342L612.439 69.7091H674.348C677.413 69.7091 679.941 67.2572 679.941 64.1924C679.941 61.1276 677.49 58.6757 674.348 58.6757H602.325ZM702.545 42.4321H797.401V58.5991H709.977C709.287 52.7759 706.222 46.7229 702.545 42.4321ZM790.965 87.8682H700.782C705.15 83.5008 708.368 78.1374 709.823 71.7012H790.965V87.8682Z"/>
<path d="M828.903 42.4321H966.131V58.5991H907.362V117.674H891.119V58.5991H843.691L828.903 42.4321ZM812.2 117.674V42.4321L881.005 117.674H859.015L828.443 84.1904V117.674H812.2Z"/>
<path d="M975.592 80.0529C975.592 59.2121 992.372 42.4321 1013.21 42.4321H1182.47C1195.03 42.4321 1205.22 52.6227 1205.22 65.1119C1205.22 77.6777 1195.03 87.8682 1182.47 87.8682H1152.43L1183.85 117.674H1161.86L1113.05 71.7012H1182.47C1186.07 71.7012 1188.98 68.7897 1188.98 65.1119C1188.98 61.6639 1186.15 58.5991 1182.47 58.5991H1013.21C1001.41 58.5991 991.836 68.3299 991.836 80.0529C991.836 91.9291 1001.49 101.2 1012.29 101.43H1074.13C1086 101.43 1095.66 91.9291 1095.66 80.0529H1111.75C1111.75 100.894 1094.97 117.674 1074.13 117.674H1012.29C991.912 117.061 975.592 100.587 975.592 80.0529Z"/>
<path d="M1220.05 101.43H1331.3C1334.98 101.43 1338.04 98.3653 1338.04 94.6875C1338.04 90.8564 1334.98 87.8682 1331.3 87.8682H1242.72C1230.24 87.8682 1220.05 77.6777 1220.05 65.1119C1220.05 52.6227 1230.24 42.4321 1242.72 42.4321H1354.28V58.5991H1242.72C1239.12 58.5991 1236.29 61.5107 1236.29 65.1119C1236.29 68.7897 1239.12 71.7012 1242.72 71.7012H1331.3C1343.94 71.7012 1354.28 81.9684 1354.28 94.6875C1354.28 107.33 1343.94 117.674 1331.3 117.674H1220.05V101.43Z"/>
<path d="M823.354 206.554H727.731C707.35 205.941 691.03 189.468 691.03 168.933C691.03 148.476 707.35 131.696 727.731 131.313H823.354V147.48H735.317C730.03 147.48 728.191 147.556 728.114 147.556C716.391 147.786 707.273 157.364 707.273 168.933C707.273 180.503 716.544 190.081 728.038 190.311H823.354V206.554Z"/>
<path d="M969.338 206.554H856.552C844.676 206.554 835.328 197.819 835.328 184.641V131.313H851.572V184.641C851.572 188.089 853.104 190.311 856.552 190.311H953.094V131.313H969.338V206.554Z"/>
<path d="M984.085 147.48V131.313H1088.83C1101.32 131.313 1111.51 141.503 1111.51 153.992C1111.51 166.558 1101.32 176.749 1088.83 176.749H1000.25V206.554H984.085V160.582H1088.83C1092.43 160.582 1095.26 157.67 1095.26 153.992C1095.26 150.391 1092.43 147.48 1088.83 147.48H984.085Z"/>
</mask>
<path d="M579.7 117.674H484.077C463.696 117.061 447.376 100.587 447.376 80.0529C447.376 59.5952 463.696 42.8152 484.077 42.4321H579.7V58.5991H491.663C486.376 58.5991 484.537 58.6757 484.46 58.6757C472.737 58.9056 463.62 68.4832 463.62 80.0529C463.62 91.6226 472.891 101.2 484.384 101.43H579.7V117.674Z" fill="#FF4D00"/>
<path d="M602.325 58.6757L587.537 42.4321H674.348C686.301 42.4321 696.108 52.2396 696.108 64.1924C696.108 76.1452 686.301 85.9527 674.348 85.9527H649.293L663.468 101.43H797.401V117.674H656.342L612.439 69.7091H674.348C677.413 69.7091 679.941 67.2572 679.941 64.1924C679.941 61.1276 677.49 58.6757 674.348 58.6757H602.325ZM702.545 42.4321H797.401V58.5991H709.977C709.287 52.7759 706.222 46.7229 702.545 42.4321ZM790.965 87.8682H700.782C705.15 83.5008 708.368 78.1374 709.823 71.7012H790.965V87.8682Z" fill="#FF4D00"/>
<path d="M828.903 42.4321H966.131V58.5991H907.362V117.674H891.119V58.5991H843.691L828.903 42.4321ZM812.2 117.674V42.4321L881.005 117.674H859.015L828.443 84.1904V117.674H812.2Z" fill="#FF4D00"/>
<path d="M975.592 80.0529C975.592 59.2121 992.372 42.4321 1013.21 42.4321H1182.47C1195.03 42.4321 1205.22 52.6227 1205.22 65.1119C1205.22 77.6777 1195.03 87.8682 1182.47 87.8682H1152.43L1183.85 117.674H1161.86L1113.05 71.7012H1182.47C1186.07 71.7012 1188.98 68.7897 1188.98 65.1119C1188.98 61.6639 1186.15 58.5991 1182.47 58.5991H1013.21C1001.41 58.5991 991.836 68.3299 991.836 80.0529C991.836 91.9291 1001.49 101.2 1012.29 101.43H1074.13C1086 101.43 1095.66 91.9291 1095.66 80.0529H1111.75C1111.75 100.894 1094.97 117.674 1074.13 117.674H1012.29C991.912 117.061 975.592 100.587 975.592 80.0529Z" fill="#FF4D00"/>
<path d="M1220.05 101.43H1331.3C1334.98 101.43 1338.04 98.3653 1338.04 94.6875C1338.04 90.8564 1334.98 87.8682 1331.3 87.8682H1242.72C1230.24 87.8682 1220.05 77.6777 1220.05 65.1119C1220.05 52.6227 1230.24 42.4321 1242.72 42.4321H1354.28V58.5991H1242.72C1239.12 58.5991 1236.29 61.5107 1236.29 65.1119C1236.29 68.7897 1239.12 71.7012 1242.72 71.7012H1331.3C1343.94 71.7012 1354.28 81.9684 1354.28 94.6875C1354.28 107.33 1343.94 117.674 1331.3 117.674H1220.05V101.43Z" fill="#FF4D00"/>
<path d="M823.354 206.554H727.731C707.35 205.941 691.03 189.468 691.03 168.933C691.03 148.476 707.35 131.696 727.731 131.313H823.354V147.48H735.317C730.03 147.48 728.191 147.556 728.114 147.556C716.391 147.786 707.273 157.364 707.273 168.933C707.273 180.503 716.544 190.081 728.038 190.311H823.354V206.554Z" fill="#FF4D00"/>
<path d="M969.338 206.554H856.552C844.676 206.554 835.328 197.819 835.328 184.641V131.313H851.572V184.641C851.572 188.089 853.104 190.311 856.552 190.311H953.094V131.313H969.338V206.554Z" fill="#FF4D00"/>
<path d="M984.085 147.48V131.313H1088.83C1101.32 131.313 1111.51 141.503 1111.51 153.992C1111.51 166.558 1101.32 176.749 1088.83 176.749H1000.25V206.554H984.085V160.582H1088.83C1092.43 160.582 1095.26 157.67 1095.26 153.992C1095.26 150.391 1092.43 147.48 1088.83 147.48H984.085Z" fill="#FF4D00"/>
<path d="M579.7 117.674H484.077C463.696 117.061 447.376 100.587 447.376 80.0529C447.376 59.5952 463.696 42.8152 484.077 42.4321H579.7V58.5991H491.663C486.376 58.5991 484.537 58.6757 484.46 58.6757C472.737 58.9056 463.62 68.4832 463.62 80.0529C463.62 91.6226 472.891 101.2 484.384 101.43H579.7V117.674Z" stroke="#FF4D00" stroke-width="4.59724" mask="url(#path-1-outside-1_878_650)"/>
<path d="M602.325 58.6757L587.537 42.4321H674.348C686.301 42.4321 696.108 52.2396 696.108 64.1924C696.108 76.1452 686.301 85.9527 674.348 85.9527H649.293L663.468 101.43H797.401V117.674H656.342L612.439 69.7091H674.348C677.413 69.7091 679.941 67.2572 679.941 64.1924C679.941 61.1276 677.49 58.6757 674.348 58.6757H602.325ZM702.545 42.4321H797.401V58.5991H709.977C709.287 52.7759 706.222 46.7229 702.545 42.4321ZM790.965 87.8682H700.782C705.15 83.5008 708.368 78.1374 709.823 71.7012H790.965V87.8682Z" stroke="#FF4D00" stroke-width="4.59724" mask="url(#path-1-outside-1_878_650)"/>
<path d="M828.903 42.4321H966.131V58.5991H907.362V117.674H891.119V58.5991H843.691L828.903 42.4321ZM812.2 117.674V42.4321L881.005 117.674H859.015L828.443 84.1904V117.674H812.2Z" stroke="#FF4D00" stroke-width="4.59724" mask="url(#path-1-outside-1_878_650)"/>
<path d="M975.592 80.0529C975.592 59.2121 992.372 42.4321 1013.21 42.4321H1182.47C1195.03 42.4321 1205.22 52.6227 1205.22 65.1119C1205.22 77.6777 1195.03 87.8682 1182.47 87.8682H1152.43L1183.85 117.674H1161.86L1113.05 71.7012H1182.47C1186.07 71.7012 1188.98 68.7897 1188.98 65.1119C1188.98 61.6639 1186.15 58.5991 1182.47 58.5991H1013.21C1001.41 58.5991 991.836 68.3299 991.836 80.0529C991.836 91.9291 1001.49 101.2 1012.29 101.43H1074.13C1086 101.43 1095.66 91.9291 1095.66 80.0529H1111.75C1111.75 100.894 1094.97 117.674 1074.13 117.674H1012.29C991.912 117.061 975.592 100.587 975.592 80.0529Z" stroke="#FF4D00" stroke-width="4.59724" mask="url(#path-1-outside-1_878_650)"/>
<path d="M1220.05 101.43H1331.3C1334.98 101.43 1338.04 98.3653 1338.04 94.6875C1338.04 90.8564 1334.98 87.8682 1331.3 87.8682H1242.72C1230.24 87.8682 1220.05 77.6777 1220.05 65.1119C1220.05 52.6227 1230.24 42.4321 1242.72 42.4321H1354.28V58.5991H1242.72C1239.12 58.5991 1236.29 61.5107 1236.29 65.1119C1236.29 68.7897 1239.12 71.7012 1242.72 71.7012H1331.3C1343.94 71.7012 1354.28 81.9684 1354.28 94.6875C1354.28 107.33 1343.94 117.674 1331.3 117.674H1220.05V101.43Z" stroke="#FF4D00" stroke-width="4.59724" mask="url(#path-1-outside-1_878_650)"/>
<path d="M823.354 206.554H727.731C707.35 205.941 691.03 189.468 691.03 168.933C691.03 148.476 707.35 131.696 727.731 131.313H823.354V147.48H735.317C730.03 147.48 728.191 147.556 728.114 147.556C716.391 147.786 707.273 157.364 707.273 168.933C707.273 180.503 716.544 190.081 728.038 190.311H823.354V206.554Z" stroke="#FF4D00" stroke-width="4.59724" mask="url(#path-1-outside-1_878_650)"/>
<path d="M969.338 206.554H856.552C844.676 206.554 835.328 197.819 835.328 184.641V131.313H851.572V184.641C851.572 188.089 853.104 190.311 856.552 190.311H953.094V131.313H969.338V206.554Z" stroke="#FF4D00" stroke-width="4.59724" mask="url(#path-1-outside-1_878_650)"/>
<path d="M984.085 147.48V131.313H1088.83C1101.32 131.313 1111.51 141.503 1111.51 153.992C1111.51 166.558 1101.32 176.749 1088.83 176.749H1000.25V206.554H984.085V160.582H1088.83C1092.43 160.582 1095.26 157.67 1095.26 153.992C1095.26 150.391 1092.43 147.48 1088.83 147.48H984.085Z" stroke="#FF4D00" stroke-width="4.59724" mask="url(#path-1-outside-1_878_650)"/>
<path d="M44.0197 49.2199L91.1773 69.2457L144.472 39.5299L0.415039 0.447262L34.0068 174.866L190.661 250.447L126.061 121.248L138.658 175.512L73.0895 145.473L55.6476 57.6178L44.0197 49.2199Z" fill="#FF4D00"/>
<path d="M336.978 49.2199L289.821 69.2457L236.526 39.5299L380.583 0.447262L346.991 174.866L190.338 250.447L254.937 121.248L242.34 175.512L307.909 145.473L325.35 57.6178L336.978 49.2199Z" fill="#FF4D00"/>
<path d="M44.0197 49.2199L91.1773 69.2457L144.472 39.5299L0.415039 0.447262L34.0068 174.866L190.661 250.447L126.061 121.248L138.658 175.512L73.0895 145.473L55.6476 57.6178L44.0197 49.2199Z" stroke="#FF4D00" stroke-width="0.645995"/>
<path d="M336.978 49.2199L289.821 69.2457L236.526 39.5299L380.583 0.447262L346.991 174.866L190.338 250.447L254.937 121.248L242.34 175.512L307.909 145.473L325.35 57.6178L336.978 49.2199Z" stroke="#FF4D00" stroke-width="0.645995"/>
</svg>

<svg width="1357" height="252" fill="none" xmlns="http://www.w3.org/2000/svg"><mask id="a" maskUnits="userSpaceOnUse" x="444.376" y="36.432" width="913" height="173" fill="#000"><path fill="#fff" d="M444.376 36.432h913v173h-913z"/><path d="M579.7 117.674h-95.623c-20.381-.613-36.701-17.087-36.701-37.621 0-20.458 16.32-37.238 36.701-37.62H579.7v16.166h-88.037c-5.287 0-7.126.077-7.203.077-11.723.23-20.84 9.807-20.84 21.377 0 11.57 9.271 21.147 20.764 21.377H579.7v16.244zM602.325 58.676l-14.788-16.244h86.811c11.953 0 21.76 9.808 21.76 21.76 0 11.953-9.807 21.76-21.76 21.76h-25.055l14.175 15.478h133.933v16.244H656.342l-43.903-47.965h61.909c3.065 0 5.593-2.452 5.593-5.517 0-3.064-2.451-5.516-5.593-5.516h-72.023zm100.22-16.244h94.856V58.6h-87.424c-.69-5.823-3.755-11.876-7.432-16.167zm88.42 45.436h-90.183c4.368-4.367 7.586-9.73 9.041-16.167h81.142v16.167zM828.903 42.432h137.228V58.6h-58.769v59.075h-16.243V58.599h-47.428l-14.788-16.167zM812.2 117.674V42.432l68.805 75.242h-21.99L828.443 84.19v33.484H812.2zM975.592 80.053c0-20.84 16.78-37.62 37.618-37.62h169.26c12.56 0 22.75 10.19 22.75 22.679 0 12.566-10.19 22.756-22.75 22.756h-30.04l31.42 29.806h-21.99l-48.81-45.973h69.42c3.6 0 6.51-2.911 6.51-6.59 0-3.447-2.83-6.512-6.51-6.512h-169.26c-11.8 0-21.374 9.73-21.374 21.454 0 11.876 9.654 21.147 20.454 21.377h61.84c11.87 0 21.53-9.5 21.53-21.377h16.09c0 20.841-16.78 37.621-37.62 37.621h-61.84c-20.378-.613-36.698-17.087-36.698-37.621zM1220.05 101.43h111.25c3.68 0 6.74-3.065 6.74-6.743 0-3.83-3.06-6.819-6.74-6.819h-88.58c-12.48 0-22.67-10.19-22.67-22.756 0-12.49 10.19-22.68 22.67-22.68h111.56V58.6h-111.56c-3.6 0-6.43 2.912-6.43 6.513 0 3.678 2.83 6.59 6.43 6.59h88.58c12.64 0 22.98 10.266 22.98 22.986 0 12.642-10.34 22.986-22.98 22.986h-111.25V101.43zM823.354 206.554h-95.623c-20.381-.613-36.701-17.086-36.701-37.621 0-20.457 16.32-37.237 36.701-37.62h95.623v16.167h-88.037c-5.287 0-7.126.076-7.203.076-11.723.23-20.841 9.808-20.841 21.377 0 11.57 9.271 21.148 20.765 21.378h95.316v16.243zM969.338 206.554H856.552c-11.876 0-21.224-8.735-21.224-21.913v-53.328h16.244v53.328c0 3.448 1.532 5.67 4.98 5.67h96.542v-58.998h16.244v75.241zM984.085 147.48v-16.167h104.745c12.49 0 22.68 10.19 22.68 22.679 0 12.566-10.19 22.757-22.68 22.757h-88.58v29.805h-16.165v-45.972h104.745c3.6 0 6.43-2.912 6.43-6.59 0-3.601-2.83-6.512-6.43-6.512H984.085z"/></mask><path d="M579.7 117.674h-95.623c-20.381-.613-36.701-17.087-36.701-37.621 0-20.458 16.32-37.238 36.701-37.62H579.7v16.166h-88.037c-5.287 0-7.126.077-7.203.077-11.723.23-20.84 9.807-20.84 21.377 0 11.57 9.271 21.147 20.764 21.377H579.7v16.244zM602.325 58.676l-14.788-16.244h86.811c11.953 0 21.76 9.808 21.76 21.76 0 11.953-9.807 21.76-21.76 21.76h-25.055l14.175 15.478h133.933v16.244H656.342l-43.903-47.965h61.909c3.065 0 5.593-2.452 5.593-5.517 0-3.064-2.451-5.516-5.593-5.516h-72.023zm100.22-16.244h94.856V58.6h-87.424c-.69-5.823-3.755-11.876-7.432-16.167zm88.42 45.436h-90.183c4.368-4.367 7.586-9.73 9.041-16.167h81.142v16.167zM828.903 42.432h137.228V58.6h-58.769v59.075h-16.243V58.599h-47.428l-14.788-16.167zM812.2 117.674V42.432l68.805 75.242h-21.99L828.443 84.19v33.484H812.2zM975.592 80.053c0-20.84 16.78-37.62 37.618-37.62h169.26c12.56 0 22.75 10.19 22.75 22.679 0 12.566-10.19 22.756-22.75 22.756h-30.04l31.42 29.806h-21.99l-48.81-45.973h69.42c3.6 0 6.51-2.911 6.51-6.59 0-3.447-2.83-6.512-6.51-6.512h-169.26c-11.8 0-21.374 9.73-21.374 21.454 0 11.876 9.654 21.147 20.454 21.377h61.84c11.87 0 21.53-9.5 21.53-21.377h16.09c0 20.841-16.78 37.621-37.62 37.621h-61.84c-20.378-.613-36.698-17.087-36.698-37.621zM1220.05 101.43h111.25c3.68 0 6.74-3.065 6.74-6.743 0-3.83-3.06-6.819-6.74-6.819h-88.58c-12.48 0-22.67-10.19-22.67-22.756 0-12.49 10.19-22.68 22.67-22.68h111.56V58.6h-111.56c-3.6 0-6.43 2.912-6.43 6.513 0 3.678 2.83 6.59 6.43 6.59h88.58c12.64 0 22.98 10.266 22.98 22.986 0 12.642-10.34 22.986-22.98 22.986h-111.25V101.43zM823.354 206.554h-95.623c-20.381-.613-36.701-17.086-36.701-37.621 0-20.457 16.32-37.237 36.701-37.62h95.623v16.167h-88.037c-5.287 0-7.126.076-7.203.076-11.723.23-20.841 9.808-20.841 21.377 0 11.57 9.271 21.148 20.765 21.378h95.316v16.243zM969.338 206.554H856.552c-11.876 0-21.224-8.735-21.224-21.913v-53.328h16.244v53.328c0 3.448 1.532 5.67 4.98 5.67h96.542v-58.998h16.244v75.241zM984.085 147.48v-16.167h104.745c12.49 0 22.68 10.19 22.68 22.679 0 12.566-10.19 22.757-22.68 22.757h-88.58v29.805h-16.165v-45.972h104.745c3.6 0 6.43-2.912 6.43-6.59 0-3.601-2.83-6.512-6.43-6.512H984.085z" fill="#FF4D00"/><path d="M579.7 117.674h-95.623c-20.381-.613-36.701-17.087-36.701-37.621 0-20.458 16.32-37.238 36.701-37.62H579.7v16.166h-88.037c-5.287 0-7.126.077-7.203.077-11.723.23-20.84 9.807-20.84 21.377 0 11.57 9.271 21.147 20.764 21.377H579.7v16.244zM602.325 58.676l-14.788-16.244h86.811c11.953 0 21.76 9.808 21.76 21.76 0 11.953-9.807 21.76-21.76 21.76h-25.055l14.175 15.478h133.933v16.244H656.342l-43.903-47.965h61.909c3.065 0 5.593-2.452 5.593-5.517 0-3.064-2.451-5.516-5.593-5.516h-72.023zm100.22-16.244h94.856V58.6h-87.424c-.69-5.823-3.755-11.876-7.432-16.167zm88.42 45.436h-90.183c4.368-4.367 7.586-9.73 9.041-16.167h81.142v16.167zM828.903 42.432h137.228V58.6h-58.769v59.075h-16.243V58.599h-47.428l-14.788-16.167zM812.2 117.674V42.432l68.805 75.242h-21.99L828.443 84.19v33.484H812.2zM975.592 80.053c0-20.84 16.78-37.62 37.618-37.62h169.26c12.56 0 22.75 10.19 22.75 22.679 0 12.566-10.19 22.756-22.75 22.756h-30.04l31.42 29.806h-21.99l-48.81-45.973h69.42c3.6 0 6.51-2.911 6.51-6.59 0-3.447-2.83-6.512-6.51-6.512h-169.26c-11.8 0-21.374 9.73-21.374 21.454 0 11.876 9.654 21.147 20.454 21.377h61.84c11.87 0 21.53-9.5 21.53-21.377h16.09c0 20.841-16.78 37.621-37.62 37.621h-61.84c-20.378-.613-36.698-17.087-36.698-37.621zM1220.05 101.43h111.25c3.68 0 6.74-3.065 6.74-6.743 0-3.83-3.06-6.819-6.74-6.819h-88.58c-12.48 0-22.67-10.19-22.67-22.756 0-12.49 10.19-22.68 22.67-22.68h111.56V58.6h-111.56c-3.6 0-6.43 2.912-6.43 6.513 0 3.678 2.83 6.59 6.43 6.59h88.58c12.64 0 22.98 10.266 22.98 22.986 0 12.642-10.34 22.986-22.98 22.986h-111.25V101.43zM823.354 206.554h-95.623c-20.381-.613-36.701-17.086-36.701-37.621 0-20.457 16.32-37.237 36.701-37.62h95.623v16.167h-88.037c-5.287 0-7.126.076-7.203.076-11.723.23-20.841 9.808-20.841 21.377 0 11.57 9.271 21.148 20.765 21.378h95.316v16.243zM969.338 206.554H856.552c-11.876 0-21.224-8.735-21.224-21.913v-53.328h16.244v53.328c0 3.448 1.532 5.67 4.98 5.67h96.542v-58.998h16.244v75.241zM984.085 147.48v-16.167h104.745c12.49 0 22.68 10.19 22.68 22.679 0 12.566-10.19 22.757-22.68 22.757h-88.58v29.805h-16.165v-45.972h104.745c3.6 0 6.43-2.912 6.43-6.59 0-3.601-2.83-6.512-6.43-6.512H984.085z" stroke="#FF4D00" stroke-width="4.597" mask="url(#a)"/><path d="M44.02 49.22l47.157 20.026 53.295-29.716L.415.447l33.592 174.419 156.654 75.581-64.6-129.199 12.597 54.264-65.568-30.039-17.442-87.855L44.02 49.22z" fill="#FF4D00"/><path d="M336.978 49.22l-47.157 20.026-53.295-29.716L380.583.447l-33.592 174.419-156.653 75.581 64.599-129.199-12.597 54.264 65.569-30.039 17.441-87.855 11.628-8.398z" fill="#FF4D00"/><path d="M44.02 49.22l47.157 20.026 53.295-29.716L.415.447l33.592 174.419 156.654 75.581-64.6-129.199 12.597 54.264-65.568-30.039-17.442-87.855L44.02 49.22z" stroke="#FF4D00" stroke-width=".646"/><path d="M336.978 49.22l-47.157 20.026-53.295-29.716L380.583.447l-33.592 174.419-156.653 75.581 64.599-129.199-12.597 54.264 65.569-30.039 17.441-87.855 11.628-8.398z" stroke="#FF4D00" stroke-width=".646"/></svg>
